outputs/icons/action/like_round.svg

<svg xmlns="http://www.w3.org/2000/svg" width="1200" height="1200" fill="none"><g clip-path="url(#a)"><path fill="#000" d="m656 102.998-277 277c-18.5 18.5-29 44-29 70.5V950c0 55 45 100 100 100h450c40 0 76-24 92-60.5L1155 609c42-99-30.5-209.001-138-209.001H734.5l47.5-229c5-25-2.5-50.501-20.5-68.5-29.5-29-76.5-29-105.5.499M150 1050c55 0 100-45 100-100V550c0-55.002-45-100.002-100-100.002S50 494.998 50 550v400c0 55 45 100 100 100"/></g><defs><clipPath id="a"><path fill="#fff" d="M0 0h1200v1200H0z"/></clipPath></defs></svg>

<svg width="1200" height="1200" viewBox="0 0 1200 1200" fill="none" xmlns="http://www.w3.org/2000/svg"><g clip-path="url(#clip0_223_1863)"><path d="M656 102.998L379 379.998C360.5 398.498 350 423.998 350 450.498V950C350 1005 395 1050 450 1050H900C940 1050 976 1026 992 989.5L1155 609C1197 510 1124.5 399.999 1017 399.999H734.5L782 170.999C787 145.999 779.5 120.498 761.5 102.499C732 73.499 685 73.499 656 102.998ZM150 1050C205 1050 250 1005 250 950V550C250 494.998 205 449.998 150 449.998C95 449.998 50 494.998 50 550V950C50 1005 95 1050 150 1050Z" fill="black"/></g><defs><clipPath id="clip0_223_1863"><path width="24" fill="white" d="M0 0H1200V1200H0V0z"/></clipPath></defs></svg>
